images/ruby.svg

<svg xmlns="http://www.w3.org/2000/svg" viewBox="0 0 600 500"><path id="ruby-outline" d="M300.9 482.5L6.995 179.2 202.2 55.51h195.9L595.4 179.2z"/><path d="M103.6 179.4l99-122.24 98.3 122.24 97.6-124.3 98.3 124.3-195.9 303.2zM6.663 179.2H595.8M300.9 55.79V482.1"/></svg>

<svg
   xmlns:svg="http://www.w3.org/2000/svg"
   xmlns="http://www.w3.org/2000/svg"
   viewBox="0 0 600 500"> 
  <g>
    <path 
      id='ruby-outline'
      d="M 300.9,482.5 6.995,179.2 202.2,55.51 l 195.9,0 197.3,123.69 z" />
    <path d="M 103.6,179.4 202.6,57.16 300.9,179.4 398.5,55.1 496.8,179.4 300.9,482.6 z" />
    <path d="m 6.663,179.2 589.137,0" />
    <path d="m 300.9,55.79 0,426.31" />
  </g>
</svg>
